X: 39642
T: Temple In The Glen, The
R: reel
M: 4/4
K: Gmajor
|:DG G2 DGBG|G2 (3Bcd egga|b2ab gedB|GAAG BAGE|
DG G2 DGBG|G2 (3Bcd egga|(3bag af gedB|1 AGBA G3E:|2 AGBA G2D2||
|:GABe dB B2|GAAG BGED|G2 (3Bcd eg g2|abgb aged|
GABe dB B2|g3d edBA|G2 (3Bcd g2fg|1 ecAF G2D2:|2 ecAF G3E||

